include/LD/assets/icons/utility/logout.svg

<?xml version="1.0"?><svg xmlns="http://www.w3.org/2000/svg" width="52" height="52" viewBox="0 0 52 52"><g fill="#fff"><path d="m21 48.5v-3c0-0.8-0.7-1.5-1.5-1.5h-10c-0.8 0-1.5-0.7-1.5-1.5v-33c0-0.8 0.7-1.5 1.5-1.5h10c0.8 0 1.5-0.7 1.5-1.5v-3c0-0.8-0.7-1.5-1.5-1.5h-13.5c-2.2 0-4 1.8-4 4v40c0 2.2 1.8 4 4 4h13.5c0.8 0 1.5-0.7 1.5-1.5z m28.6-21.5c0.6-0.6 0.6-1.5 0-2.1l-13.5-13.5c-0.6-0.6-1.5-0.6-2.1 0l-2.1 2.1c-0.6 0.6-0.6 1.5 0 2.1l5.6 5.6c0.6 0.6 0.2 1.7-0.7 1.7h-21.3c-0.8 0-1.5 0.6-1.5 1.4v3c0 0.8 0.7 1.6 1.5 1.6h21.2c0.9 0 1.3 1.1 0.7 1.7l-5.6 5.6c-0.6 0.6-0.6 1.5 0 2.1l2.1 2.1c0.6 0.6 1.5 0.6 2.1 0l13.6-13.4z"></path></g></svg>

<svg xmlns="http://www.w3.org/2000/svg" x="0px" y="0px"
	 width="52px" height="52px" viewBox="0 0 52 52" enable-background="new 0 0 52 52" xml:space="preserve">
<g>
	<path fill="#FFFFFF" d="M21,48.5v-3c0-0.8-0.7-1.5-1.5-1.5h-10C8.7,44,8,43.3,8,42.5v-33C8,8.7,8.7,8,9.5,8h10
		C20.3,8,21,7.3,21,6.5v-3C21,2.7,20.3,2,19.5,2H6C3.8,2,2,3.8,2,6v40c0,2.2,1.8,4,4,4h13.5C20.3,50,21,49.3,21,48.5z"/>
	<path fill="#FFFFFF" d="M49.6,27c0.6-0.6,0.6-1.5,0-2.1L36.1,11.4c-0.6-0.6-1.5-0.6-2.1,0l-2.1,2.1c-0.6,0.6-0.6,1.5,0,2.1l5.6,5.6
		c0.6,0.6,0.2,1.7-0.7,1.7H15.5c-0.8,0-1.5,0.6-1.5,1.4v3c0,0.8,0.7,1.6,1.5,1.6h21.2c0.9,0,1.3,1.1,0.7,1.7l-5.6,5.6
		c-0.6,0.6-0.6,1.5,0,2.1l2.1,2.1c0.6,0.6,1.5,0.6,2.1,0L49.6,27z"/>
</g>
</svg>
